X:1
T:Title
%%score 1 ( 2 3 )
L:1/8
Q:1/4=92
M:2/4
K:Ab
V:1 treble nm="Grand Piano, Soprano"
V:2 bass nm="Choir Pad, Eastcote, 10.10.11.10"
V:3 bass 
V:1
 [Ec]2 [DB][CA] | [DG][DF] [CE]2 | [EA]2 [FB]>[FB] | [Ec]4 | [Ec]2 [DB][CA] | [EG][DF] [CE]2 | %6
w: By~James~Henry~Fillmore,~Sr.,~1874 * *||||||
 [EA]2 [EB]>[DB] | [CA]4 | [Ee]2 [Ed][Ec] | [EB][Ec] [Ed]2 | [Ed]2 [Ec][EB] | [EA][Ec] [EB]2 | %12
w: ||||||
 [Ec]2 [DB][CA] | [EG][DF] [CE][EA] | [EB]2 [Ec]>[DB] | [CA]4- | [CA]4 |] %17
w: |||||
V:2
 A,2 A,A, | [D,A,][D,A,] [A,,A,]2 | [C,A,]2 [E,G,]>[E,G,] | A,4 | A,2 A,A, | %5
 [C,A,][D,A,] [A,,A,]2 | [C,A,]2 [E,G,]>[E,G,] | [A,,A,]4 | [A,C]2 [G,B,]A, | %9
 [E,G,][E,A,] [E,B,]2 | [E,B,]2 [E,A,][D,G,] | [C,A,][B,,A,] [E,G,]2 | A,2 A,A, | %13
 [C,A,][D,A,] A,-[C,A,] | [E,G,]2 [E,A,]>E, | [A,,E,]4- | [A,,E,]4 |] %17
V:3
 x4 | x4 | x4 | x4 | x4 | x4 | x4 | x4 | x4 | x4 | x4 | x4 | x4 | z2 .A,,2 | x4 | x4 | x4 |] %17

